src/icons/mfa.svg

<svg xmlns="http://www.w3.org/2000/svg"  viewBox="0 0 50 50" width="32px" height="32px"><path d="M 3 11 C 1.347656 11 0 12.347656 0 14 L 0 35 C 0 36.652344 1.347656 38 3 38 L 35 38 C 36.652344 38 38 36.652344 38 35 L 38 33 L 50 33 L 50 16 L 38 16 L 38 14 C 38 12.347656 36.652344 11 35 11 Z M 21.5 18 C 25.089844 18 28 20.910156 28 24.5 C 28 28.089844 25.089844 31 21.5 31 C 17.910156 31 15 28.089844 15 24.5 C 15 20.910156 17.910156 18 21.5 18 Z M 38 18 L 48 18 L 48 31 L 38 31 L 38 30 L 46 30 L 46 28 L 38 28 L 38 27 L 44 27 L 44 25 L 38 25 L 38 24 L 44 24 L 44 22 L 38 22 L 38 21 L 46 21 L 46 19 L 38 19 Z M 6.5 23 C 7.328125 23 8 23.671875 8 24.5 C 8 25.328125 7.328125 26 6.5 26 C 5.671875 26 5 25.328125 5 24.5 C 5 23.671875 5.671875 23 6.5 23 Z M 21.5 23 C 20.671875 23 20 23.671875 20 24.5 C 20 25.328125 20.671875 26 21.5 26 C 22.328125 26 23 25.328125 23 24.5 C 23 23.671875 22.328125 23 21.5 23 Z"/></svg>

<svg role="img" viewBox="0 0 50 50" xmlns="http://www.w3.org/2000/svg"><path d="M3 11c-1.652 0-3 1.348-3 3v21c0 1.652 1.348 3 3 3h32c1.652 0 3-1.348 3-3v-2h12V16H38v-2c0-1.652-1.348-3-3-3Zm18.5 7a6.5 6.5 0 1 1 0 13 6.5 6.5 0 0 1 0-13M38 18h10v13H38v-1h8v-2h-8v-1h6v-2h-6v-1h6v-2h-6v-1h8v-2h-8ZM6.5 23a1.5 1.5 0 1 1 0 3 1.5 1.5 0 0 1 0-3m15 0a1.5 1.5 0 1 0 0 3 1.5 1.5 0 0 0 0-3"/></svg>
